X:6
T:Scottiche gasconne
A:Gascogne
O:France
M:2/4
L:1/8
Q:1/8=170
K:C
c/2d/2e/2f/2 gg|a/2g/2f/2a/2 g/2f/2e/2d/2|c/2d/2e/2f/2
gg|a/2g/2f/2e/2 d2:|
|:fd/2f/2 ec/2e/2|dd g2|fd/2f/2 ec/2e/2|dd c2:|
